FD 20    ;(drawing a line and moving)
PENUP    ;(now we've lifted the pen so it won't draw anything even if we do move)
FD 20    ;(not drawing but moving)
PENDOWN  ;(now we've lowered the pen so it draws a line wherever the turtle moves)
FD 20    ;(drawing a line and moving)
PENUP
FD 20    ;(etc...)
PENDOWN
FD 20