to l :l :w
  if :l = 0 [stop]
  rt 90
  r dif :l 1 :w
  fd :w
  lt 90
  l dif :l 1 :w
  fd :w
  l dif :l 1 :w
  lt 90
  fd :w
  r dif :l 1 :w
  rt 90
end

to r :l :w
  if :l = 0 [stop]
  lt 90
  l dif :l 1 :w
  fd :w
  rt 90
  r dif :l 1 :w
  fd :w
  r dif :l 1 :w
  right 90
  fd :w
  l dif :l 1 :w
  lt 90
end

reset
;setxy 60 440
;penwidth 4
l 2 2